src/assets/home/socialnetwork/facebook.svg

<svg width="80" height="80" viewBox="0 0 80 80" fill="none" xmlns="http://www.w3.org/2000/svg">
<path d="M40 80C17.9029 80 0 62.0859 0 40C0 17.903 17.9141 0 40 0C62.097 0 80 17.9141 80 40C80 62.0859 62.097 80 40 80Z" fill="#3E5C9A"/>
<path d="M33.8984 64.1833H43.6363V39.7995H50.4294L51.1544 31.6345H43.6363C43.6363 31.6345 43.6363 28.5893 43.6363 26.983C43.6363 25.0533 44.0267 24.2948 45.8895 24.2948C47.3842 24.2948 51.1544 24.2948 51.1544 24.2948V15.8174C51.1544 15.8174 45.5995 15.8174 44.4059 15.8174C37.1555 15.8174 33.8873 19.0076 33.8873 25.1202C33.8873 30.4409 33.8873 31.6345 33.8873 31.6345H28.8231V39.8999H33.8873V64.1833H33.8984Z" fill="white"/>
</svg>

<svg width="80" height="80" fill="none" xmlns="http://www.w3.org/2000/svg"><path d="M40 80C17.903 80 0 62.086 0 40 0 17.903 17.914 0 40 0c22.097 0 40 17.914 40 40S62.097 80 40 80Z" fill="#3E5C9A"/><path d="M33.898 64.183h9.738V39.8h6.793l.725-8.165h-7.518v-4.651c0-1.93.39-2.688 2.253-2.688h5.265v-8.478h-6.748c-7.25 0-10.519 3.19-10.519 9.303v6.514h-5.064V39.9h5.064v24.283h.011Z" fill="#fff"/></svg>
